X:78
T:Southern Spy
C:Paul Prestopino
S:Bernie Waugh
R:Reel
M:2/4
L:1/16
K:A
|:\
"A"c3{d}c- cBAc|"E"BAGF "A"E2CE|"D"DEFA- ABAF|"E"EFGB- BcdB|
"A"c3{d}c- cBAc|"E"BAGF "A"E2CE|"D"DEFA "E"GABd|"A"cA2A- AGAB:|
|:\
"C"=c3d cA=G=F|E=C2C- C2EC|"D"DEFA dBA=G|FD2D- D2FD|
"E"EFGB e2ef|gegf- "D7"fe2=c|"A"^cfe=c "D7"BAFE|"A"A3B AGAB:|

